!!!!SEGMENT: pl-cz--iii-110--001_dankowski-adalbert--offertorium-recitativo-ad-mariam.krn
!!!cenid: 18xx:788
!!!COM: Dankowski, Adalbert
!!!COM-rismID: pe30000793
!!!CDT: ~1760-~1836
!!!CNT: Polish
!!!OPR: Offertorium
!!!OTL: Recitativo - Ad Mariam
!!!OMV: 001
!!!PDT:
!!!AGN: Sacred
!!!SMS-siglum: PL-CZ
!!!SMS-shelfmark: III-110
!!!SMS-shelfwork: 001-001 M
!!!SMS-variant:
!!!SMS-altvar:
!!!NIFC-rismSourceID: 300000104
!!!NIFC-islandoraID: pl-cz:34403
!!!URL-pdf-islandora: https://repozytorium.nifc.pl/islandora/object/pl-cz%3A34403/datastream/PDF/view
!!!URL-scan:
!!!ONB-nifc: UWAGA: części Offertorium: Recitativo (Ad Mariam), Ave gratia plena
!!!AIN: 1 alto 1 bass 1 cor 1 organ 1 soprn 1 tenor 1 viola 2 violn
!!!key: d
**kern	**fba	**dynam	**kern	**dynam	**kern	**dynam	**kern	**dynam	**kern	**kern	**kern	**text	**kern	**kern
*part12	*part12	*part12	*part11	*part11	*part10	*part10	*part9	*part9	*part8	*part7	*part6	*part6	*part5	*part4
*staff12	*	*	*staff11	*	*staff10	*	*staff9	*	*staff8	*staff7	*staff6	*staff6	*staff5	*staff4
*I"Organo	*	*	*I"Viola Obligatto.	*	*I"Violino Secondo	*	*I"Violino Primo	*	*I"Basso	*I"Tenore	*I"Alto	*	*I"Canto	*I"Corno Secondo Ex D:
*I'org.	*	*	*I'vla obl.	*	*I'vl II	*	*I'vl I	*	*I'B.	*I'T.	*I'A.	*	*I'S.	*I'Corno Secondo Ex D:
*ICklav	*	*	*ICstr	*	*ICstr	*	*ICstr	*	*ICvox	*ICvox	*ICvox	*	*ICvox	*ICbras
*Iorgan	*	*	*Iviola	*	*Ivioln	*	*Ivioln	*	*Ibass	*Itenor	*Ialto	*	*Isoprn	*Icor
*clefF4	*	*	*clefC3	*	*clefG2	*	*clefG2	*	*clefF4	*clefGv2	*clefC3	*	*clefG2	*clefG2
*	*	*	*	*	*	*	*	*	*	*	*	*	*	*ITrd6c10
*k[b-]	*	*	*k[b-]	*	*k[b-]	*	*k[b-]	*	*k[b-]	*k[b-]	*k[b-]	*	*k[b-]	*k[b-]
*d:	*	*	*d:	*	*d:	*	*d:	*	*d:	*d:	*d:	*	*d:	*d:
*M4/4	*	*	*M4/4	*	*M4/4	*	*M4/4	*	*M4/4	*M4/4	*M4/4	*	*M4/4	*M4/4
*met(c)	*	*	*met(c)	*	*met(c)	*	*met(c)	*	*met(c)	*met(c)	*met(c)	*	*met(c)	*met(c)
=1	=1	=1	=1	=1	=1	=1	=1	=1	=1	=1	=1	=1	=1	=1
!!LO:TX:t=P:problem: 2\right	!	!	!	!	!	!	!	!	!	!	!	!	!	!	!	!
!	!	!	!	!	!	!	!	!	!	!	!LO:TX:a:B:i:t=Recitativo	!	!	!
!LO:TX:a:B:t=Adagio Solo	!	!	!LO:TX:a:B:t=Adagio Solo	!	!LO:TX:a:B:t=Adagio Solo	!	!LO:TX:a:B:t=Adagio Solo	!	!LO:TX:a:B:i:t=Recitativo Tacet	!LO:TX:a:B:i:t=Recitativo Tacet	!LO:TX:a:B:t=Adagio Solo	!	!LO:TX:a:B:i:t=Recitativo Tacet	!LO:TX:a:B:i:t=Recitativo Tacet
4D\	.	.	4A/	.	8.f/L	.	(8.dd\L	.	1ryy	1ryy	1r	.	1ryy	1ryy
.	.	.	.	.	(32g/LL	.	32ee\LL)	.	.	.	.	.	.	.
.	.	.	.	.	32a/JJJ)	.	32ff\JJJ	.	.	.	.	.	.	.
8C#X\L	6 5	.	4A/	.	8g`/L	.	8ee`\L	.	.	.	.	.	.	.
8D\J	.	.	.	.	8f`/J	.	8dd`\J	.	.	.	.	.	.	.
4E\	6| 3	.	4A/	.	4g/	.	(16dd\LL	.	.	.	.	.	.	.
.	.	.	.	.	.	.	16cc#X\JJ)	.	.	.	.	.	.	.
.	.	.	.	.	.	.	4cc#\	.	.	.	.	.	.	.
4D\	.	.	4A/	.	4f/	.	.	.	.	.	.	.	.	.
.	.	.	.	.	.	.	8dd\	.	.	.	.	.	.	.
=2	=2	=2	=2	=2	=2	=2	=2	=2	=2	=2	=2	=2	=2	=2
4C#X/	6 5	.	4A/	.	4.e/	.	(16ee\LL	.	1ryy	1ryy	1r	.	1ryy	1ryy
.	.	.	.	.	.	.	16aa\J)	.	.	.	.	.	.	.
.	.	.	.	.	.	.	(8.aa\J	.	.	.	.	.	.	.
4AA/	.	.	4c#X/	.	.	.	.	.	.	.	.	.	.	.
.	.	.	.	.	.	.	16gg\LL)	.	.	.	.	.	.	.
.	.	.	.	.	8g/	.	(16ff\	.	.	.	.	.	.	.
.	.	.	.	.	.	.	16ee\JJ)	.	.	.	.	.	.	.
!LO:TX:t=P:problem=mixed beam	!	!	!	!	!	!	!	!	!	!	!	!	!	!
8D/L	.	.	8d/L	.	(16g/LL	.	16ee\LL	.	.	.	.	.	.	.
.	.	.	.	.	16f/J)	.	16dd\J	.	.	.	.	.	.	.
8DD/J	.	.	8A/J	.	8f`/J	.	8dd\J	.	.	.	.	.	.	.
4F\	6 3	.	4F/	.	4a/	.	16r	.	.	.	.	.	.	.
.	.	.	.	.	.	.	16dd`\LL	.	.	.	.	.	.	.
.	.	.	.	.	.	.	(16cc\	.	.	.	.	.	.	.
.	.	.	.	.	.	.	16ccn\JJ)	.	.	.	.	.	.	.
=3	=3	=3	=3	=3	=3	=3	=3	=3	=3	=3	=3	=3	=3	=3
!LO:TX:t=P:problem=mixed beam	!	!	!	!	!	!	!	!	!	!	!	!	!	!
8G/L	3	.	4G/	.	4d/	.	16cc\LL	.	1ryy	1ryy	1r	.	1ryy	1ryy
.	.	.	.	.	.	.	16b-\J	.	.	.	.	.	.	.
8GG/J	.	.	.	.	.	.	8b-\J	.	.	.	.	.	.	.
4G\	.	.	4G/	.	4d/	.	16r	.	.	.	.	.	.	.
.	.	.	.	.	.	.	(16dd\LL	.	.	.	.	.	.	.
.	.	.	.	.	.	.	16cc\)	.	.	.	.	.	.	.
.	.	.	.	.	.	.	16b-\JJ	.	.	.	.	.	.	.
!LO:TX:t=P:problem=mixed beam	!	!	!	!	!	!	!	!	!	!	!	!	!	!
8F/L	6_	.	4F/	.	4d/	.	(16b-/LL	.	.	.	.	.	.	.
.	.	.	.	.	.	.	16a/J)	.	.	.	.	.	.	.
8FF/J	.	.	.	.	.	.	8a/J	.	.	.	.	.	.	.
4F\	.	.	4F/	.	4a/	.	16r	.	.	.	.	.	.	.
.	.	.	.	.	.	.	16dd\LL	.	.	.	.	.	.	.
.	.	.	.	.	.	.	16ff\	.	.	.	.	.	.	.
.	.	.	.	.	.	.	16dd\JJ	.	.	.	.	.	.	.
=4	=4	=4	=4	=4	=4	=4	=4	=4	=4	=4	=4	=4	=4	=4
4E\	6 8	.	4A/	.	4g/	.	(16dd\LL	.	1ryy	1ryy	1r	.	1ryy	1ryy
.	.	.	.	.	.	.	16cc#X\	.	.	.	.	.	.	.
.	.	.	.	.	.	.	16ee\)	.	.	.	.	.	.	.
!	!	!	!	!	!	!	!LO:LB:g=original	!	!	!	!	!	!	!
.	.	.	.	.	.	.	16cc#\JJ	.	.	.	.	.	.	.
4C#X/	6 5	.	4A/	.	4e/	.	16a/LL	.	.	.	.	.	.	.
.	.	.	.	.	.	.	16b-/	.	.	.	.	.	.	.
.	.	.	.	.	.	.	16a/	.	.	.	.	.	.	.
.	.	.	.	.	.	.	16g/JJ	.	.	.	.	.	.	.
4D\	.	.	4A/	.	4d/	.	16g/LL	.	.	.	.	.	.	.
.	.	.	.	.	.	.	16f/J	.	.	.	.	.	.	.
.	.	.	.	.	.	.	8f/J	.	.	.	.	.	.	.
4F\	6	.	4d\	.	4a/	.	16dd\LL	.	.	.	.	.	.	.
.	.	.	.	.	.	.	16ee\	.	.	.	.	.	.	.
.	.	.	.	.	.	.	16ff\	.	.	.	.	.	.	.
.	.	.	.	.	.	.	16dd\JJ	.	.	.	.	.	.	.
=5	=5	=5	=5	=5	=5	=5	=5	=5	=5	=5	=5	=5	=5	=5
4G\	6	.	4g\	.	4b-/	.	(8.ee\L	.	1ryy	1ryy	1r	.	1ryy	1ryy
.	.	.	.	.	.	.	32gg\LL)	.	.	.	.	.	.	.
.	.	.	.	.	.	.	32bb-\JJJ	.	.	.	.	.	.	.
4A\	#	.	4e\	.	4g/	.	16.aa\LL	.	.	.	.	.	.	.
.	.	.	.	.	.	.	32cc#X\JJk	.	.	.	.	.	.	.
.	.	.	.	.	.	.	8qdd/	.	.	.	.	.	.	.
.	.	.	.	.	.	.	(16cc#\LL	.	.	.	.	.	.	.
.	.	.	.	.	.	.	32b-\L	.	.	.	.	.	.	.
.	.	.	.	.	.	.	32cc#\JJJ)	.	.	.	.	.	.	.
4B-\	.	.	4d\	.	4f/	.	16cc#\LL	.	.	.	.	.	.	.
.	.	.	.	.	.	.	16dd\J	.	.	.	.	.	.	.
.	.	.	.	.	.	.	8dd\J	.	.	.	.	.	.	.
4F\	6	.	4d\	.	4a/	.	16dd\LL	.	.	.	.	.	.	.
.	.	.	.	.	.	.	16ee\	.	.	.	.	.	.	.
.	.	.	.	.	.	.	16ff\	.	.	.	.	.	.	.
.	.	.	.	.	.	.	16dd\JJ	.	.	.	.	.	.	.
=6	=6	=6	=6	=6	=6	=6	=6	=6	=6	=6	=6	=6	=6	=6
4G\	6	.	4g\	.	4b-/	.	8.ee\L	.	1ryy	1ryy	2r	.	1ryy	1ryy
.	.	.	.	.	.	.	32gg\LL	.	.	.	.	.	.	.
.	.	.	.	.	.	.	32bb-\JJJ	.	.	.	.	.	.	.
4A\	#	.	4e\	.	4g/	.	16.aa\LL	.	.	.	.	.	.	.
.	.	.	.	.	.	.	32cc#X\JJk	.	.	.	.	.	.	.
.	.	.	.	.	.	.	8qdd/	.	.	.	.	.	.	.
.	.	.	.	.	.	.	16cc#\LL	.	.	.	.	.	.	.
.	.	.	.	.	.	.	32b-\L	.	.	.	.	.	.	.
.	.	.	.	.	.	.	32cc#\JJJ	.	.	.	.	.	.	.
!	!	!LO:DY:t=p&colon;	!	!	!	!LO:DY:t=p&colon;	!	!	!	!	!	!	!	!
2D\	.	p	4d\	.	2f/	p	4dd\	.	.	.	4r	.	.	.
.	.	.	4r	.	.	.	4r	.	.	.	8r	.	.	.
.	.	.	.	.	.	.	.	.	.	.	16a\	Ad	.	.
.	.	.	.	.	.	.	.	.	.	.	16a\	Ma-	.	.
=7	=7	=7	=7	=7	=7	=7	=7	=7	=7	=7	=7	=7	=7	=7
!	!	!	!	!	!	!	!	!LO:DY:a	!	!	!	!	!	!
!	!	!	!	!	!	!	!	!LO:DY:t=p&colon;	!	!	!	!	!	!
1D	.	.	1A	.	[1d	.	4f/	p	1ryy	1ryy	16f\LL	-riam	1ryy	1ryy
.	.	.	.	.	.	.	.	.	.	.	16e\JJ	.	.	.
.	.	.	.	.	.	.	.	.	.	.	8d\	.	.	.
!	!	!	!	!	!	!	!LO:LB:g=original	!	!	!	!	!	!	!
.	.	.	.	.	.	.	2.f/	.	.	.	16r	.	.	.
.	.	.	.	.	.	.	.	.	.	.	16d\	Cum	.	.
.	.	.	.	.	.	.	.	.	.	.	16d\	tri-	.	.
.	.	.	.	.	.	.	.	.	.	.	16d\	-bu-	.	.
.	.	.	.	.	.	.	.	.	.	.	8f\	-la-	.	.
.	.	.	.	.	.	.	.	.	.	.	16a\	-rer	.	.
.	.	.	.	.	.	.	.	.	.	.	16a\	Cla-	.	.
.	.	.	.	.	.	.	.	.	.	.	8dd\	-ma-	.	.
.	.	.	.	.	.	.	.	.	.	.	8dd\	-vi	.	.
=8	=8	=8	=8	=8	=8	=8	=8	=8	=8	=8	=8	=8	=8	=8
2D\	.	.	1A	.	2d/]	.	2f/	.	1ryy	1ryy	8r	.	1ryy	1ryy
.	.	.	.	.	.	.	.	.	.	.	16d\	(et)	.	.
.	.	.	.	.	.	.	.	.	.	.	16e\	Cle-	.	.
.	.	.	.	.	.	.	.	.	.	.	8f\	-men-	.	.
.	.	.	.	.	.	.	.	.	.	.	16e\	-ti-	.	.
.	.	.	.	.	.	.	.	.	.	.	16d\	-a	.	.
2C#X/	6 5	.	.	.	2e/	.	2g/	.	.	.	8a\	Su-	.	.
.	.	.	.	.	.	.	.	.	.	.	8a\	-a	.	.
.	.	.	.	.	.	.	.	.	.	.	16r	.	.	.
.	.	.	.	.	.	.	.	.	.	.	16e\	Ex-	.	.
.	.	.	.	.	.	.	.	.	.	.	16a\	-au-	.	.
.	.	.	.	.	.	.	.	.	.	.	16g\	-di-	.	.
=9	=9	=9	=9	=9	=9	=9	=9	=9	=9	=9	=9	=9	=9	=9
*	*	*	*^	*	*	*	*	*	*	*	*	*	*	*
!	!	!	!	!	!	!LO:TX:a:t=dol&colon;	!	!LO:TX:a:t=dol&colon;	!	!	!	!	!	!	!
4D\	.	.	4A/	4ryy	.	4d/	.	4f/	.	1ryy	1ryy	16g\LL	-vit	1ryy	1ryy
.	.	.	.	.	.	.	.	.	.	.	.	16f\JJ	.	.	.
.	.	.	.	.	.	.	.	.	.	.	.	8f\	me	.	.
4F\	6	.	4A/	4F\	fz	(16a/LL	.	(16aa\LL	.	.	.	4r	.	.	.
.	.	.	.	.	.	16f/)	.	16ff\	.	.	.	.	.	.	.
.	.	.	.	.	.	(16e/	.	16ee\)	.	.	.	.	.	.	.
.	.	.	.	.	.	16d/JJ)	.	16dd\JJ	.	.	.	.	.	.	.
!	!	!	!	!	!	!LO:LB:g=original	!	!LO:LB:g=original	!	!	!	!	!	!	!
4E\	6| 3	.	4G/	2ryy	.	(16d/LL	.	(16dd\LL	.	.	.	2r	.	.	.
.	.	.	.	.	.	16c#X/J)	.	16cc#X\J)	.	.	.	.	.	.	.
.	.	.	.	.	.	8c#`/J	.	8cc#`\J	.	.	.	.	.	.	.
4C#X/	6 5	.	8A/L	.	.	(16a/LL	.	(16aa\LL	.	.	.	.	.	.	.
.	.	.	.	.	.	16g/)	.	16gg\)	.	.	.	.	.	.	.
.	.	.	8G/J	.	.	(16f/	.	16ff\	.	.	.	.	.	.	.
.	.	.	.	.	.	16e/JJ)	.	16ee\JJ	.	.	.	.	.	.	.
*	*	*	*v	*v	*	*	*	*	*	*	*	*	*	*	*
=10	=10	=10	=10	=10	=10	=10	=10	=10	=10	=10	=10	=10	=10	=10
4D\	.	.	4F/	.	(16e/LL	.	(16ee\LL	.	1ryy	1ryy	1r	.	1ryy	1ryy
.	.	.	.	.	16d/J)	.	16dd\J)	.	.	.	.	.	.	.
.	.	.	.	.	8d`/J	.	8dd`\J	.	.	.	.	.	.	.
4B-\	.	.	4d\	.	(16d/LL	.	(16dd\LL	.	.	.	.	.	.	.
.	.	.	.	.	16e/)	.	16ee\	.	.	.	.	.	.	.
.	.	.	.	.	(16f/	.	16ff\)	.	.	.	.	.	.	.
.	.	.	.	.	16g/JJ)	.	16gg\JJ	.	.	.	.	.	.	.
4G\	6	.	4B-/	.	(16f/LL	.	(16ff\LL	.	.	.	.	.	.	.
.	.	.	.	.	16e/)	.	16ee\)	.	.	.	.	.	.	.
.	.	.	.	.	(16e/	.	(16gg\	.	.	.	.	.	.	.
.	.	.	.	.	16g/JJ)	.	16ee\JJ)	.	.	.	.	.	.	.
!LO:TX:t=P:problem=mixed beam	!	!	!	!	!	!	!	!	!	!	!	!	!	!
8A\L	4	.	8A/L	.	8f/L	.	(16ee\LL	.	.	.	.	.	.	.
.	.	.	.	.	.	.	16dd\)	.	.	.	.	.	.	.
8AA\J	#	.	8A/J	.	8e/J	.	(16dd\	.	.	.	.	.	.	.
.	.	.	.	.	.	.	16cc#X\JJ)	.	.	.	.	.	.	.
=11	=11	=11	=11	=11	=11	=11	=11	=11	=11	=11	=11	=11	=11	=11
!	!	!	!	!LO:DY:t=p&colon;	!	!	!LO:DY:t=p&colon;	!	!	!	!	!	!	!
!	!	!	!	!	!	!	!	!LO:DY:a	!	!	!	!	!	!
2D/	.	.	1A	p	4f/	p	4dd\	p	1ryy	1ryy	8r	.	1ryy	1ryy
.	.	.	.	.	.	.	.	.	.	.	16d\	Ad	.	.
.	.	.	.	.	.	.	.	.	.	.	16f\	te	.	.
.	.	.	.	.	4d/	.	4f/	.	.	.	8.a\	Do-	.	.
.	.	.	.	.	.	.	.	.	.	.	16a\	-mi-	.	.
2C#X/	6 5	.	.	.	2e/	.	2g/	.	.	.	8a\	-na	.	.
.	.	.	.	.	.	.	.	.	.	.	16b-\LL	le-	.	.
.	.	.	.	.	.	.	.	.	.	.	16g\JJ	.	.	.
.	.	.	.	.	.	.	.	.	.	.	16f\LL	-va-	.	.
.	.	.	.	.	.	.	.	.	.	.	16e\JJ	.	.	.
.	.	.	.	.	.	.	.	.	.	.	8e\	-vi	.	.
=12	=12	=12	=12	=12	=12	=12	=12	=12	=12	=12	=12	=12	=12	=12
!	!	!	!	!	!	!	!LO:LB:g=original	!	!	!	!	!	!	!
!	!	!	!LO:LB:g=original	!	!	!	!	!	!	!	!	!	!	!
!LO:LB:g=original	!	!	!	!	!	!	!	!	!	!	!	!	!	!
[4E\	6|	f	4A/	.	2c#X/	.	2g/	.	1ryy	1ryy	16r	.	1ryy	1ryy
.	.	.	.	.	.	.	.	.	.	.	16c#X\	le-	.	.
.	.	.	.	.	.	.	.	.	.	.	16e\	-va-	.	.
.	.	.	.	.	.	.	.	.	.	.	16g\	-vi	.	.
!	!	!	!	!	!	!	!	!	!	!	!LO:LB:g=original	!	!	!
4E\]	.	.	4c#X\	.	.	.	.	.	.	.	8b-\	a-	.	.
.	.	.	.	.	.	.	.	.	.	.	16a\	-ni-	.	.
.	.	.	.	.	.	.	.	.	.	.	16g\	-mam	.	.
16r	.	.	16r	.	16r	.	16r	.	.	.	16g`\LL	me-	.	.
!	!	!LO:DY:t=for&colon;	!	!	!	!LO:DY:t=f&colon;	!	!LO:DY:t=for&colon;	!	!	!	!	!	!
!	!	!	!	!	!	!	!	!LO:DY:a	!	!	!	!	!	!
16D`\LL	.	f	16d`\LL	f	16d`/LL	f	16d`/LL	f	.	.	16f`\JJ	.	.	.
16D`\	.	.	16d`\	.	16d`/	.	16d`/	.	.	.	8f`\	-am	.	.
16D`\JJ	.	.	16d`\JJ	.	16d`/JJ	.	16d`/JJ	.	.	.	.	.	.	.
!	!	!	!	!	!LO:LB:g=original	!	!	!	!	!	!	!	!	!
(32D/LLL	.	.	(32d\LLL	.	(32d/LLL	.	(32d/LLL	.	.	.	4r	.	.	.
32C#X/)	.	.	32c#X\)	.	32c#X/	.	32c#X/)	.	.	.	.	.	.	.
(32D/	.	.	(32d\	.	32d/	.	(32d/	.	.	.	.	.	.	.
32C#/JJJ)	.	.	32c#\JJJ)	.	32c#/JJJ)	.	32c#/JJJ)	.	.	.	.	.	.	.
(32D/LLL	.	.	(32d/LLL	.	(32d/LLL	.	(32d/LLL	.	.	.	.	.	.	.
32C#/)	.	.	32c#/)	.	32c#/)	.	32c#/)	.	.	.	.	.	.	.
(32BB-/	.	.	(32B-/	.	(32B-/	.	(32B-/	.	.	.	.	.	.	.
32AA/JJJ)	.	.	32A/JJJ)	.	32A/JJJ)	.	32A/JJJ)	.	.	.	.	.	.	.
=13	=13	=13	=13	=13	=13	=13	=13	=13	=13	=13	=13	=13	=13	=13
(32GG#X/LLL	.	.	(32G#X/LLL	.	(32G#X/LLL	.	(32G#X/LLL	.	1ryy	1ryy	2r	.	1ryy	1ryy
32AA/	.	.	32A/)	.	32A/	.	32A/)	.	.	.	.	.	.	.
32BB-/	.	.	(32B-/	.	32B-/)	.	(32B-/	.	.	.	.	.	.	.
32AA/JJJ)	.	.	32A/JJJ)	.	32A/JJJ	.	32A/JJJ)	.	.	.	.	.	.	.
(32GG#/LLL	.	.	(32G#/LLL	.	(32G#/LLL	.	(32G#/LLL	.	.	.	.	.	.	.
32AA/	.	.	32A/)	.	32A/	.	32A/)	.	.	.	.	.	.	.
32BB-/	.	.	(32B-/	.	32B-/	.	(32B-/	.	.	.	.	.	.	.
32AA/JJJ)	.	.	32A/JJJ)	.	32A/JJJ)	.	32A/JJJ)	.	.	.	.	.	.	.
(32GG#/LLL	.	.	(32G#/LLL	.	(32G#/LLL	.	(32G#/LLL	.	.	.	.	.	.	.
32AA/	.	.	32A/)	.	32A/	.	32A/)	.	.	.	.	.	.	.
32BB-/	.	.	(32B-/	.	32B-/)	.	(32B-/	.	.	.	.	.	.	.
32C/JJJ)	.	.	32c/JJJ)	.	32c/JJJ	.	32c/JJJ)	.	.	.	.	.	.	.
(32D\LLL	.	.	(32d\LLL	.	(32d/LLL	.	(32d/LLL	.	.	.	.	.	.	.
32E\	.	.	32e\)	.	32e/	.	32e/)	.	.	.	.	.	.	.
32F\	.	.	(32f\	.	32f/	.	(32f/	.	.	.	.	.	.	.
32G#X\JJJ)	.	.	32g\JJJ)	.	32g/JJJ)	.	32g/JJJ)	.	.	.	.	.	.	.
!	!	!	!	!	!	!	!	!LO:DY:t=p&colon;	!	!	!	!	!	!
!	!	!	!	!	!	!	!	!LO:DY:a	!	!	!	!	!	!
!	!	!LO:DY:a	!	!	!	!	!	!	!	!	!	!	!	!
4A\	#	p	4a\	p	4c#X/	p	4a/	p	.	.	8r	.	.	.
.	.	.	.	.	.	.	.	.	.	.	16e\	in	.	.
.	.	.	.	.	.	.	.	.	.	.	16e\	Ju-	.	.
4C#X/	6	.	4A/	.	4e/	.	4gn/	.	.	.	8a\	-di-	.	.
.	.	.	.	.	.	.	.	.	.	.	16a\	-ci-	.	.
.	.	.	.	.	.	.	.	.	.	.	16a\	-o	.	.
=14	=14	=14	=14	=14	=14	=14	=14	=14	=14	=14	=14	=14	=14	=14
2D/	.	.	1A	.	2d/	.	2f/	.	1ryy	1ryy	8.f\	De-	1ryy	1ryy
.	.	.	.	.	.	.	.	.	.	.	16e\	-i	.	.
.	.	.	.	.	.	.	.	.	.	.	16e\LL	me-	.	.
.	.	.	.	.	.	.	.	.	.	.	16d\JJ	.	.	.
.	.	.	.	.	.	.	.	.	.	.	8d\	-i	.	.
2C#X/	6 5	.	.	.	2e/	.	4g/	.	.	.	8r	.	.	.
.	.	.	.	.	.	.	.	.	.	.	16r	.	.	.
.	.	.	.	.	.	.	.	.	.	.	16e\	(et)	.	.
!	!	!	!	!	!	!	!LO:LB:g=original	!	!	!	!	!	!	!
.	.	.	.	.	.	.	4g/	.	.	.	8a\	pre-	.	.
.	.	.	.	.	.	.	.	.	.	.	16g\	-ci-	.	.
.	.	.	.	.	.	.	.	.	.	.	16g\	-bus	.	.
=15	=15	=15	=15	=15	=15	=15	=15	=15	=15	=15	=15	=15	=15	=15
!	!	!	!	!	!LO:LB:g=original	!	!	!	!	!	!	!	!	!
4D/	.	.	4d\	.	4d/	.	4f/	.	1ryy	1ryy	16g\LL	tu-	1ryy	1ryy
.	.	.	.	.	.	.	.	.	.	.	16f\JJ	.	.	.
.	.	.	.	.	.	.	.	.	.	.	8f\	-is	.	.
4BBn/	6| 3	.	4e\	.	4d/	.	4g#X/	.	.	.	16r	.	.	.
.	.	.	.	.	.	.	.	.	.	.	16dd\	non	.	.
.	.	.	.	.	.	.	.	.	.	.	16b-\	e-	.	.
.	.	.	.	.	.	.	.	.	.	.	16g#X\	-ra	.	.
!	!	!	!	!	!	!	!LO:TX:a:t=dol.	!	!	!	!	!	!	!
4AA/	#	.	4e\	.	4c#X/	.	4a/	.	.	.	16g#\LL	bes-	.	.
.	.	.	.	.	.	.	.	.	.	.	16a\JJ	.	.	.
.	.	.	.	.	.	.	.	.	.	.	8a\	-cam	.	.
4C#X/	6 5	.	(16c#X\LL	.	(16e/LL	.	(8.aa\L	.	.	.	4r	.	.	.
.	.	.	16e\)	.	16a/)	.	.	.	.	.	.	.	.	.
.	.	.	(16c#\	.	(16e/	.	.	.	.	.	.	.	.	.
.	.	.	16e\JJ)	.	16a/JJ)	.	16ggn\Jk)	.	.	.	.	.	.	.
=16	=16	=16	=16	=16	=16	=16	=16	=16	=16	=16	=16	=16	=16	=16
.	.	.	.	.	.	.	8qgg/	.	.	.	.	.	.	.
4D\	.	.	(16d\LL	.	(16f/LL	.	8ff\L	.	1ryy	1ryy	1r	.	1ryy	1ryy
.	.	.	16f\)	.	16a/)	.	.	.	.	.	.	.	.	.
.	.	.	(16d\	.	(16f/	.	(16ee\L	.	.	.	.	.	.	.
.	.	.	16f\JJ)	.	16a/JJ)	.	16dd\JJ)	.	.	.	.	.	.	.
!LO:LB:g=original	!	!	!	!	!	!	!	!	!	!	!	!	!	!
4E\	6| 3	.	(16e\LL	.	(16g/LL	.	(8.cc#X\L	.	.	.	.	.	.	.
.	.	.	16g\)	.	16a/)	.	.	.	.	.	.	.	.	.
.	.	.	(16e\	.	(16g/	.	.	.	.	.	.	.	.	.
.	.	.	16g\JJ)	.	16a/JJ)	.	16ee\Jk)	.	.	.	.	.	.	.
!	!	!	!LO:LB:g=original	!	!	!	!	!	!	!	!	!	!	!
4D\	.	.	(16d\LL	.	(16f/LL	.	(16ee\LL	.	.	.	.	.	.	.
.	.	.	16f\)	.	16a/)	.	16dd\)	.	.	.	.	.	.	.
.	.	.	(16d\	.	(16f/	.	(16dd\	.	.	.	.	.	.	.
.	.	.	16f\JJ)	.	16a/JJ)	.	16ff\JJ)	.	.	.	.	.	.	.
4C#X\	6 5	.	(16c#X\LL	.	(16e/LL	.	(8.aa\L	.	.	.	.	.	.	.
.	.	.	16e\)	.	16a/)	.	.	.	.	.	.	.	.	.
.	.	.	(16c#\	.	(16e/	.	.	.	.	.	.	.	.	.
.	.	.	16e\JJ)	.	16a/JJ)	.	16gg\Jk)	.	.	.	.	.	.	.
=17	=17	=17	=17	=17	=17	=17	=17	=17	=17	=17	=17	=17	=17	=17
.	.	.	.	.	.	.	8qgg/	.	.	.	.	.	.	.
4D\	.	.	(16d\LL	.	(16f/LL	.	8ff\L	.	1ryy	1ryy	1r	.	1ryy	1ryy
.	.	.	16f\)	.	16a/)	.	.	.	.	.	.	.	.	.
.	.	.	(16d\	.	(16f/	.	(16ee\L	.	.	.	.	.	.	.
.	.	.	16f\JJ)	.	16a/JJ)	.	16dd\JJ)	.	.	.	.	.	.	.
4E\	6 3	.	(16e\LL	.	(16g/LL	.	(8.cc#X\L	.	.	.	.	.	.	.
.	.	.	16g\)	.	16a/)	.	.	.	.	.	.	.	.	.
.	.	.	(16e\	.	(16g/	.	.	.	.	.	.	.	.	.
.	.	.	16g\JJ)	.	16a/JJ)	.	16ee\Jk)	.	.	.	.	.	.	.
!	!	!	!	!	!	!	!LO:LB:g=original	!	!	!	!	!	!	!
4D\	.	.	(16d\LL	.	(16f/LL	.	(16ee\LL	.	.	.	.	.	.	.
.	.	.	16f\)	.	16a/)	.	16dd\)	.	.	.	.	.	.	.
.	.	.	(16d\	.	(16f/	.	(16dd\	.	.	.	.	.	.	.
.	.	.	16f\JJ)	.	16a/JJ)	.	16ff\JJ)	.	.	.	.	.	.	.
4C#X\	6 5	.	(16c#X\LL	.	(16e/LL	.	(8.aa\L	.	.	.	.	.	.	.
.	.	.	16e\)	.	16a/)	.	.	.	.	.	.	.	.	.
.	.	.	(16c#\	.	(16e/	.	.	.	.	.	.	.	.	.
.	.	.	16e\JJ)	.	16a/JJ)	.	16gg\Jk)	.	.	.	.	.	.	.
=18	=18	=18	=18	=18	=18	=18	=18	=18	=18	=18	=18	=18	=18	=18
8D/L	.	.	8d\L	.	8a/L	.	(16ff\LL	.	1ryy	1ryy	1r	.	1ryy	1ryy
.	.	.	.	.	.	.	32ee\L	.	.	.	.	.	.	.
.	.	.	.	.	.	.	32ff\JJJ	.	.	.	.	.	.	.
8C#X/	6 5	.	8e\	.	8a/	.	16gg\LL)	.	.	.	.	.	.	.
.	.	.	.	.	.	.	16gg`\JJ	.	.	.	.	.	.	.
8D/	.	.	8d\	.	8a/	.	(16ff\LL	.	.	.	.	.	.	.
.	.	.	.	.	.	.	32ee\L	.	.	.	.	.	.	.
.	.	.	.	.	.	.	32ff\JJJ)	.	.	.	.	.	.	.
!	!	!	!	!	!LO:LB:g=original	!	!	!	!	!	!	!	!	!
8C#/J	6 5	.	8e\J	.	8a/J	.	16gg`\LL	.	.	.	.	.	.	.
.	.	.	.	.	.	.	16gg`\JJ	.	.	.	.	.	.	.
8D/L	.	.	8d\L	.	8a\L	.	(32ff\LLL	.	.	.	.	.	.	.
.	.	.	.	.	.	.	32gg\	.	.	.	.	.	.	.
.	.	.	.	.	.	.	32ff\	.	.	.	.	.	.	.
.	.	.	.	.	.	.	32ee\JJJ)	.	.	.	.	.	.	.
8Cn/	#4r 2	.	8A\	.	8cc\	.	16ff#X`\LL	.	.	.	.	.	.	.
.	.	.	.	.	.	.	16ff#`\JJ	.	.	.	.	.	.	.
8BBn/	6 3_	.	8d\	.	8cc\	.	16gg`\LL	.	.	.	.	.	.	.
.	.	.	.	.	.	.	16gg`\	.	.	.	.	.	.	.
8BB-X/J	6|	.	8e\J	.	8cc\J	.	16gg#X`\	.	.	.	.	.	.	.
.	.	.	.	.	.	.	16gg#`\JJ	.	.	.	.	.	.	.
=19	=19	=19	=19	=19	=19	=19	=19	=19	=19	=19	=19	=19	=19	=19
*	*	*	*^	*	*	*	*	*	*	*	*	*	*	*
8AA/	#	.	8e\	4ryy	.	16cc#X`\LL	.	16aa\LL	.	1ryy	1ryy	1r	.	1ryy	1ryy
!	!	!	!	!	!	!LO:TX:b:i:t=perdend&colon;	!	!LO:TX:b:i:t=perdendo	!	!	!	!	!	!	!
.	.	.	.	.	.	16cc#`\	.	16ee`\	.	.	.	.	.	.	.
8r	.	.	8r	.	p	16cc#`\	.	16ee`\	.	.	.	.	.	.	.
.	.	.	.	.	.	16cc#`\JJ	.	16ee`\JJ	.	.	.	.	.	.	.
!	!	!LO:DY:t=p&colon;	!	!	!	!	!	!	!	!	!	!	!	!	!
8A\L	#_	p	8e/L	8c#X\L	.	(8.cc#\L	.	(8.ee\L	.	.	.	.	.	.	.
8A\J	.	.	8e/J	8c#\J	.	.	.	.	.	.	.	.	.	.	.
.	.	.	.	.	.	16a\Jk)	.	16cc#X\Jk)	.	.	.	.	.	.	.
8AA/	.	.	8e/	8c#\	.	(16.cc#\LL	.	(16.ee\LL	.	.	.	.	.	.	.
.	.	.	.	.	.	32a\K)	.	32cc#\K)	.	.	.	.	.	.	.
!LO:TX:b:i:t=Verte Chorus	!	!	!LO:TX:b:i:t=Verte Chorus	!	!	!	!	!	!	!	!	!	!	!	!
8r	.	.	8r	8ryy	.	(16.cc#\	.	(16.ee\	.	.	.	.	.	.	.
.	.	.	.	.	.	32a\JJk)	.	32cc#\JJk)	.	.	.	.	.	.	.
4r	.	.	4r	4ryy	.	(16.cc#\LL	.	(16.ee\LL	.	.	.	.	.	.	.
.	.	.	.	.	.	32a\JJk)	.	32cc#\JJk)	.	.	.	.	.	.	.
!	!	!	!	!	!	!	!	!LO:TX:b:i:t=Verte Chorus	!	!	!	!	!	!	!
.	.	.	.	.	.	8r	.	8r	.	.	.	.	.	.	.
*	*	*	*v	*v	*	*	*	*	*	*	*	*	*	*	*
==	==	==	==	==	==	==	==	==	==	==	==	==	==	==
*-	*-	*-	*-	*-	*-	*-	*-	*-	*-	*-	*-	*-	*-	*-
!!!system-decoration: [(s1,s2)][(s3,s4)][(s5,s6,s7,s8)][(s9,s10,s11)][(s12)]
!!!ENC: Anastazja Marusiak
!!!END: 2020-07-14
!!!ENC: Jan Barakat
!!!END: 2022-01-12
